src/assets/svg/icons/fa/nuevos/classic/light/brackets-square classic light.svg

<svg xmlns="http://www.w3.org/2000/svg" viewBox="0 0 448 512"><path d="M400 32h-96C295.2 32 288 39.18 288 48S295.2 64 304 64h96C408.8 64 416 71.18 416 80v352c0 8.822-7.178 16-16 16h-96c-8.822 0-16 7.178-16 16s7.178 16 16 16h96c26.47 0 48-21.53 48-48v-352C448 53.53 426.5 32 400 32zM48 64h96C152.8 64 160 56.82 160 48S152.8 32 144 32h-96C21.53 32 0 53.53 0 80v352C0 458.5 21.53 480 48 480h96C152.8 480 160 472.8 160 464S152.8 448 144 448h-96C39.18 448 32 440.8 32 432v-352C32 71.18 39.18 64 48 64z"/></svg>

<svg xmlns="http://www.w3.org/2000/svg" viewBox="0 0 448 512"><!--! Font Awesome Pro 6.4.0 by @fontawesome - https://fontawesome.com License - https://fontawesome.com/license (Commercial License) Copyright 2023 Fonticons, Inc. --><path d="M48 32C21.5 32 0 53.5 0 80V432c0 26.5 21.5 48 48 48h96c8.8 0 16-7.2 16-16s-7.2-16-16-16H48c-8.8 0-16-7.2-16-16V80c0-8.8 7.2-16 16-16h96c8.8 0 16-7.2 16-16s-7.2-16-16-16H48zm352 0H304c-8.8 0-16 7.2-16 16s7.2 16 16 16h96c8.8 0 16 7.2 16 16V432c0 8.8-7.2 16-16 16H304c-8.8 0-16 7.2-16 16s7.2 16 16 16h96c26.5 0 48-21.5 48-48V80c0-26.5-21.5-48-48-48z"/></svg>
